X: 13
T: Drops Of Brandy, The
Z: leprecawn
S: https://thesession.org/tunes/388#setting54074
R: slip jig
M: 9/8
L: 1/8
K: Gmaj
||:ded BGB BGB|ded BGB c2A|ded BGB BGB|cBc A2 B cBA:||
GBd gdB gdB|GBd gdB cBA|GBd gdB gdB|cBc A2 B cBA|
GBd gdB gdB|GBd gdB cBA|GBd gba gdB|cBc A2 B cBA||

%-------------------- TUNE SEPARATOR --------------------%

